assets/images/social-letter.svg

<svg width="120" height="110" viewBox="0 0 120 110" fill="none" xmlns="http://www.w3.org/2000/svg">
<path d="M10.9091 0H120L109.091 109.091H0L10.9091 0Z" fill="#FDCC0A"/>
<path d="M27.5541 66.45L43.072 54.5426L27.5541 42.6353C27.459 42.562 27.3651 42.487 27.2727 42.4103V66.675C27.3651 66.5983 27.4589 66.5232 27.5541 66.45ZM88.3292 69.4068L72.0188 56.8915L59.076 66.8229L46.1332 56.8915L29.8229 69.4067C28.4781 70.4385 27.5924 71.9729 27.3454 73.6335H90.8065C90.5595 71.9729 89.6739 70.4385 88.3292 69.4068ZM90.5978 42.6353L75.08 54.5426L90.598 66.4501C90.6934 66.5233 90.7869 66.5987 90.8794 66.6751V42.4102C90.7869 42.4868 90.693 42.5619 90.5978 42.6353Z" fill="#1C1C1C"/>
<path d="M29.8227 39.6808L59.0759 62.1276L88.329 39.6808C89.6738 38.649 90.5595 37.1147 90.8065 35.4541H27.3453C27.5924 37.1147 28.478 38.649 29.8227 39.6808Z" fill="#1C1C1C"/>
</svg>

<svg width="120" height="110" fill="none" xmlns="http://www.w3.org/2000/svg"><path d="M10.91 0H120l-10.909 109.091H0L10.91 0Z" fill="#FDCC0A"/><path d="m27.554 66.45 15.518-11.907-15.518-11.908a9.967 9.967 0 0 1-.281-.225v24.265c.092-.077.186-.152.281-.225Zm60.775 2.957L72.02 56.892l-12.943 9.93-12.943-9.93-16.31 12.515a6.562 6.562 0 0 0-2.478 4.227h63.462a6.562 6.562 0 0 0-2.478-4.227Zm2.269-26.772L75.08 54.543 90.598 66.45c.095.073.189.149.281.225V42.41c-.092.077-.186.152-.281.225Z" fill="#1C1C1C"/><path d="m29.823 39.68 29.253 22.448L88.329 39.68a6.562 6.562 0 0 0 2.478-4.227H27.344a6.562 6.562 0 0 0 2.478 4.227Z" fill="#1C1C1C"/></svg>
